X:17
T:Ladies Breast Knot,The. JBi.17
M:2/4
L:1/8
Q:1/2=60
S:James Biggins MS, Leeds, 1779.
R:.Misc.
O:England
A:Yorkshire
Z:vmp.Nick Barber & Chris Partington
K:D
D|GB-BG FA-AF|Ee-ed Tc2BA|GB-BG FAAc|d/c/B/A/ dFTE2D:|!
|:"_rest added"z|fdfd fa-ag/f/|ecec eg-gf/e/|fdfd fa2f|eAAGTF2D:|

